X:6577
T:The Brass (?Braes) of Acklebire
O:england
M:2/2
L:1/8
S:Armitt MS
N:It is obvious that another page has blotted on this one, and there are
N:a lot of extraneous blots   cont/ however I think the notes represented
N:here
N:as chords are alternate note
K:C major
C2CD EGGA|cded cAGc|A/2A/2A AG A2a2|ecge d2c2|"see note"[C2B2][GC]D EGGA
|cded cAGc|AGGc F
cEc|d/2c/2B c[Eg][D2f2]C2:||:efga gece|afdf edcG|A/2A/2A ag a2b2|ecge d2
c2|e
fga gece|gfdf edcG|AcGc FcEc|d/2c/2BED2C2:|


